images/comments-action.svg

<?xml version="1.0" encoding="UTF-8" standalone="no"?>
<svg width="40px" height="39px" viewBox="0 0 40 39" version="1.1" xmlns="http://www.w3.org/2000/svg" xmlns:xlink="http://www.w3.org/1999/xlink" xmlns:sketch="http://www.bohemiancoding.com/sketch/ns">
    <!-- Generator: Sketch 3.5 (25232) - http://www.bohemiancoding.com/sketch -->
    <title>icon</title>
    <desc>Created with Sketch.</desc>
    <defs></defs>
    <g id="Landing" stroke="none" stroke-width="1" fill="none" fill-rule="evenodd" sketch:type="MSPage">
        <g id="landing-features-03" sketch:type="MSArtboardGroup" transform="translate(-1412.000000, -524.000000)">
            <g id="Group" sketch:type="MSLayerGroup" transform="translate(-642.000000, 126.000000)">
                <g id="item" transform="translate(2054.000000, 377.000000)" sketch:type="MSShapeGroup">
                    <g id="icon" transform="translate(0.000000, 21.000000)">
                        <path d="M12,18 C13.1045695,18 14,17.1045695 14,16 C14,14.8954305 13.1045695,14 12,14 C10.8954305,14 10,14.8954305 10,16 C10,17.1045695 10.8954305,18 12,18 Z M20,18 C21.1045695,18 22,17.1045695 22,16 C22,14.8954305 21.1045695,14 20,14 C18.8954305,14 18,14.8954305 18,16 C18,17.1045695 18.8954305,18 20,18 Z M28,18 C29.1045695,18 30,17.1045695 30,16 C30,14.8954305 29.1045695,14 28,14 C26.8954305,14 26,14.8954305 26,16 C26,17.1045695 26.8954305,18 28,18 Z" id="Oval-150" fill="#5DD572"></path>
                    </g>
                </g>
            </g>
        </g>
    </g>
</svg>

<svg width="40" height="39" viewBox="0 0 40 39" xmlns="http://www.w3.org/2000/svg"><title>icon</title><path d="M12 18c1.105 0 2-.895 2-2s-.895-2-2-2-2 .895-2 2 .895 2 2 2zm8 0c1.105 0 2-.895 2-2s-.895-2-2-2-2 .895-2 2 .895 2 2 2zm8 0c1.105 0 2-.895 2-2s-.895-2-2-2-2 .895-2 2 .895 2 2 2z" fill="#5DD572" fill-rule="evenodd"/></svg>
